img/dark/f6.svg

<?xml version="1.0" encoding="UTF-8"?>
<svg width="24px" height="24px" viewBox="0 0 24 24" version="1.1" xmlns="http://www.w3.org/2000/svg" xmlns:xlink="http://www.w3.org/1999/xlink">
    <!-- Generator: Sketch 60.1 (88133) - https://sketch.com -->
    <title>f6_dark</title>
    <desc>Created with Sketch.</desc>
    <g id="f6_dark" stroke="none" stroke-width="1" fill="none" fill-rule="evenodd">
        <path d="M13.3914747,0.80591623 L4.48957549,11.8944792 C4.17233624,12.30136 4,12.7301639 4,13.2199268 L4.00579455,13.3698532 C4.0787326,14.3067208 4.83148244,14.9952054 5.76625885,14.9952054 L9.817,14.994366 L7.46349668,21.3659829 C6.6388489,23.5916801 9.17057007,24.9588818 10.6085253,23.1920208 L19.5014115,12.1148497 C19.8216767,11.7205444 20,11.2722693 20,10.7780102 L19.9941823,10.6289295 C19.9209592,9.69730908 19.165436,9.01198127 18.2337411,9.01198127 L14.182,9.01144381 L16.5366431,2.63157546 C17.364129,0.41669919 14.8295943,-0.96114671 13.3914747,0.80591623 Z M6.239,12.9422576 L14.297,2.90436901 L11.2868759,11.0640897 L17.753,11.0635523 L9.703,21.0911803 L12.7137352,12.943097 L6.239,12.9422576 Z" id="1" fill="#FFFFFF"></path>
    </g>
</svg>

<svg xmlns="http://www.w3.org/2000/svg" width="24" height="24" xmlns:v="https://vecta.io/nano"><path d="M13.39.806L4.5 11.894c-.317.407-.5.836-.5 1.325l.006.15a1.74 1.74 0 0 0 1.76 1.625l4.05-.001-2.354 6.372c-.825 2.226 1.707 3.593 3.145 1.826L19.5 12.115c.32-.394.5-.843.5-1.337l-.006-.15a1.74 1.74 0 0 0-1.76-1.617l-4.052-.001 2.355-6.38C17.364.417 14.83-.96 13.39.806zM6.24 12.942l8.058-10.038-3 8.16h6.466L9.703 21.09l3.01-8.148-6.475-.001z" fill="#fff" fill-rule="evenodd"/></svg>
